svg/fluentui-system-icons/ic_fluent_document_bullet_list_16_filled.svg

<svg width="16" height="16" viewBox="0 0 16 16" fill="none" xmlns="http://www.w3.org/2000/svg">
<path d="M8 1V4.5C8 5.32843 8.67157 6 9.5 6H13V13.5C13 14.3284 12.3284 15 11.5 15H4.5C3.67157 15 3 14.3284 3 13.5V2.5C3 1.67157 3.67157 1 4.5 1H8ZM9 1.25V4.5C9 4.77614 9.22386 5 9.5 5H12.75L9 1.25ZM7 8.5C7 8.77614 7.22386 9 7.5 9H10.5C10.7761 9 11 8.77614 11 8.5C11 8.22386 10.7761 8 10.5 8H7.5C7.22386 8 7 8.22386 7 8.5ZM7.5 10C7.22386 10 7 10.2239 7 10.5C7 10.7761 7.22386 11 7.5 11H10.5C10.7761 11 11 10.7761 11 10.5C11 10.2239 10.7761 10 10.5 10H7.5ZM7 12.5C7 12.7761 7.22386 13 7.5 13H10.5C10.7761 13 11 12.7761 11 12.5C11 12.2239 10.7761 12 10.5 12H7.5C7.22386 12 7 12.2239 7 12.5ZM5.5 9C5.77614 9 6 8.77614 6 8.5C6 8.22386 5.77614 8 5.5 8C5.22386 8 5 8.22386 5 8.5C5 8.77614 5.22386 9 5.5 9ZM6 10.5C6 10.2239 5.77614 10 5.5 10C5.22386 10 5 10.2239 5 10.5C5 10.7761 5.22386 11 5.5 11C5.77614 11 6 10.7761 6 10.5ZM5.5 13C5.77614 13 6 12.7761 6 12.5C6 12.2239 5.77614 12 5.5 12C5.22386 12 5 12.2239 5 12.5C5 12.7761 5.22386 13 5.5 13Z" fill="#212121"/>
</svg>

<svg xmlns="http://www.w3.org/2000/svg" width="16" height="16"><path d="M8 1v3.5A1.5 1.5 0 0 0 9.5 6H13v7.5a1.5 1.5 0 0 1-1.5 1.5h-7A1.5 1.5 0 0 1 3 13.5v-11A1.5 1.5 0 0 1 4.5 1H8Zm1 .25V4.5a.5.5 0 0 0 .5.5h3.25L9 1.25ZM7 8.5a.5.5 0 0 0 .5.5h3a.5.5 0 0 0 0-1h-3a.5.5 0 0 0-.5.5Zm.5 1.5a.5.5 0 0 0 0 1h3a.5.5 0 0 0 0-1h-3ZM7 12.5a.5.5 0 0 0 .5.5h3a.5.5 0 0 0 0-1h-3a.5.5 0 0 0-.5.5ZM5.5 9a.5.5 0 1 0 0-1 .5.5 0 0 0 0 1Zm.5 1.5a.5.5 0 1 0-1 0 .5.5 0 0 0 1 0ZM5.5 13a.5.5 0 1 0 0-1 .5.5 0 0 0 0 1Z"/></svg>
